docs/.gitbook/assets/icon-two-people-16@dark.svg

<svg width="32" height="32" viewBox="0 0 16 16" fill="none" xmlns="http://www.w3.org/2000/svg">
<rect x="0" y="0" width="16" height="16" fill="#181c1f"/>
<path fill-rule="evenodd" clip-rule="evenodd" d="M5.74999 2.5C5.19771 2.5 4.74999 2.94772 4.74999 3.5C4.74999 4.05228 5.19771 4.5 5.74999 4.5C6.30228 4.5 6.74999 4.05228 6.74999 3.5C6.74999 2.94772 6.30228 2.5 5.74999 2.5ZM3.24999 3.5C3.24999 2.11929 4.36928 1 5.74999 1C7.13071 1 8.24999 2.11929 8.24999 3.5C8.24999 4.88071 7.13071 6 5.74999 6C4.36928 6 3.24999 4.88071 3.24999 3.5ZM10.25 5.5C9.69771 5.5 9.24999 5.94772 9.24999 6.5C9.24999 7.05228 9.69771 7.5 10.25 7.5C10.8023 7.5 11.25 7.05228 11.25 6.5C11.25 5.94772 10.8023 5.5 10.25 5.5ZM7.74999 6.5C7.74999 5.11929 8.86928 4 10.25 4C11.6307 4 12.75 5.11929 12.75 6.5C12.75 7.88071 11.6307 9 10.25 9C8.86928 9 7.74999 7.88071 7.74999 6.5ZM5.75003 8.5C4.07557 8.5 3.1096 8.85586 2.68471 9.80614L2.02345 9.51047L2.68471 9.80614C2.59902 9.99777 2.6137 10.1949 2.67519 10.3145C2.70302 10.3687 2.74015 10.4085 2.78873 10.4373C2.83724 10.4661 2.92477 10.5 3.07528 10.5H4.25003C4.66425 10.5 5.00003 10.8358 5.00003 11.25C5.00003 11.6642 4.66425 12 4.25003 12H3.07528C2.27188 12 1.65296 11.6069 1.34113 11.0003C1.04962 10.4332 1.06429 9.75536 1.31536 9.19386L2.00003 9.5L1.31536 9.19386C2.13692 7.35645 3.99341 7 5.75003 7C5.84421 7 5.93812 7.00198 6.03168 7.00593C6.44553 7.02341 6.76684 7.37307 6.74936 7.78691C6.73188 8.20076 6.38222 8.52207 5.96838 8.50459C5.89603 8.50154 5.82322 8.5 5.75003 8.5ZM10.25 11.5C8.57558 11.5 7.60961 11.8559 7.18471 12.8061L6.50004 12.5L7.18471 12.8061C7.05455 13.0973 7.11901 13.2501 7.16752 13.3193C7.23132 13.4103 7.37043 13.5 7.57529 13.5H12.9248C13.1297 13.5 13.2688 13.4103 13.3326 13.3193C13.3811 13.2501 13.4455 13.0973 13.3154 12.8061C12.8905 11.8559 11.9245 11.5 10.25 11.5ZM5.81536 12.1939C6.63692 10.3564 8.49341 10 10.25 10C12.0067 10 13.8632 10.3564 14.6847 12.1939C15.0017 12.9027 14.9505 13.6249 14.5606 14.1807C14.186 14.7147 13.5639 15 12.9248 15H7.57529C6.9362 15 6.31412 14.7147 5.93951 14.1807C5.54961 13.6249 5.49841 12.9027 5.81536 12.1939L5.81536 12.1939Z" fill="#fff"/>
</svg>

<svg xmlns="http://www.w3.org/2000/svg" width="32" height="32" fill="none" viewBox="0 0 16 16"><path fill="#181c1f" d="M0 0h16v16H0z"/><path fill="#fff" fill-rule="evenodd" d="M5.75 2.5a1 1 0 1 0 0 2 1 1 0 0 0 0-2m-2.5 1a2.5 2.5 0 1 1 5 0 2.5 2.5 0 0 1-5 0m7 2a1 1 0 1 0 0 2 1 1 0 0 0 0-2m-2.5 1a2.5 2.5 0 1 1 5 0 2.5 2.5 0 0 1-5 0m-2 2c-1.674 0-2.64.356-3.065 1.306l-.662-.296.662.296a.61.61 0 0 0-.01.509.3.3 0 0 0 .114.122.55.55 0 0 0 .286.063H4.25a.75.75 0 0 1 0 1.5H3.075c-.803 0-1.422-.393-1.734-1-.291-.567-.277-1.245-.026-1.806L2 9.5l-.685-.306C2.137 7.356 3.993 7 5.75 7q.141 0 .282.006a.75.75 0 1 1-.064 1.499A5 5 0 0 0 5.75 8.5m4.5 3c-1.674 0-2.64.356-3.065 1.306L6.5 12.5l.685.306c-.13.291-.066.444-.017.513.063.091.202.181.407.181h5.35c.205 0 .344-.09.408-.18.048-.07.112-.223-.018-.514-.425-.95-1.39-1.306-3.065-1.306m-4.435.694C6.637 10.356 8.493 10 10.25 10s3.613.356 4.435 2.194c.317.709.265 1.43-.124 1.987-.375.534-.997.819-1.636.819h-5.35c-.639 0-1.26-.285-1.635-.82-.39-.555-.442-1.277-.125-1.986" clip-rule="evenodd"/></svg>
